X:512
%%etbk:tnset id:250,pos:1,rep:3x,ant:
%%etbk:wsite http://comhaltas.ie/music/detail/andersons/
%%etbk:pldat 2016-09-16T15:27,2016-09-13T17:46,2016-05-24T16:44,2016-04-11T18:49,2016-03-24T16:32,2016-03-21T18:42,2016-03-20T10:33,2016-03-17T18:30,2015-09-06T14:45,2015-07-17T15:22,2015-05-06T15:40,2015-02-14T14:29,2015-02-04T16:55,2015-02-03T17:05,2015-01-26T19:33,2015-01-24T12:45,2015-01-17T14:49,2015-01-05T19:39,2014-12-31T15:28,2014-12-29T16:48,2014-12-28T15:30,2014-09-09T18:40,2014-07-04T13:05,2014-05-19T18:27,2014-05-01T18:54,2014-04-12T15:23,2014-04-03T19:48,2014-04-02T17:56,2014-03-18T16:59,2014-03-16T15:47,2014-03-15T16:40,2014-03-09T16:59,2014-03-01T17:37,2014-02-20T19:21,2014-02-19T16:34,2014-02-16T16:06,2014-02-15T16:56,2014-02-14T17:05,2014-02-13T18:20,2013-12-11T19:35,2013-11-24T15:18,2013-11-23T16:08,2013-11-18T18:42,2013-11-16T15:59,2013-11-13T17:01,2013-11-10T15:02,2013-11-09T15:50,2013-10-20T15:15,2013-10-05T15:42,2013-10-02T16:47,2013-09-30T18:29,2013-09-15T17:05,2013-09-12T18:46
T:Anderson's
Z: Piano Box Version by Martin Fleischmann
H: Created 2013-09-04 /  Last Modified 2013-09-30
R:reel
M:4/4
K:Dmaj
dB|!1!AB!3!d!5!f efdB|!1!A!2!FFF EFDB|!1!A!2!B!4!d!3!f !2!e!3!f!1!d!3!f|!5!afef de!1!d!2!B|
!1!AB!3!d!5!f ef!3!d!2!B | !1!A!2!FFF EFDF| !1!A!2!B!4!d!3!f !2!e2!1!df|afef defg||
!5!a2!2!f!4!a bafa|a2fd edBd|a2fa bafb|afef defg|
a2fa bafa|a2fd edBd|!1!A2!4!dB !1!A!2!B!4!d!3!f|!5!afef d2dB||


